X:1
T:Title
%%score { ( 1 3 4 ) | ( 2 5 ) }
L:1/8
M:3/4
K:Eb
V:1 treble nm="Grand Piano"
V:3 treble 
V:4 treble 
V:2 treble 
V:5 treble 
V:1
 z2 z2[Q:1/4=94] G>A | z B, z e [Bd]>[Ac] | [GB]4 z2 | [FA]4[K:treble] z2 |[M:2/4] [EG]4 | %5
[M:1/4] G>A |[M:3/4] z B, z e [Bd]>[Ac] | [GB]4 z2 | F,B, z e d>c |[M:2/4] B->[FB-] [AB]2 | %10
[M:1/4] B>G |[M:3/4] [GB]-[EG-B-] [EGB][F=B] [=Ec]>[EG] | [FA]-[CF-A-] [CFA]2 F>G | %13
 [FA]-[DF-A-] [FA]c [EGB]>[B,FA] | [EG]4 z2 | [GB]-[EG-B-] [EGB]e f>e | e4 z2 | [DF]4 z2 | %18
[M:2/4] E4 |] %19
V:2
 z2 z2 E>F | [E,,E,][E,G,] z[K:treble] c[K:bass] [E,A,C]2 | [E,,E,][E,G,] [E,G,]2 D>E | %3
 B,,,B,, z A [B,,D,F,B,]2 |[M:2/4] [E,,E,][E,G,] [E,G,]2 |[M:1/4][K:treble] E>F | %6
[M:3/4][K:bass] [E,,E,][E,G,] z[K:treble] c[K:bass] [E,A,C]2 | [E,,E,][E,G,] [E,G,]2 E>E | %8
 F,,F, z[K:treble] G [B,F]>[K:bass][=A,E] |[M:2/4] [B,,,B,,][B,,D,F,] [B,,D,F,B,]2 | %10
[M:1/4][K:treble] G>E |[M:3/4][K:bass] z2 z2 G,2 | F,F, F,2 D>E | B,,B,, z A C,>D, | %14
 E,E, E,2[K:treble] E>F | E,E, z[K:treble] [B,G] A>G | _G-[=A,G-] [A,G]2 =G>E | %17
 B,,B,, z F z z/ [A,D]/ |[M:2/4] [E,G,][E,A,] [E,G,]2 |] %19
V:3
 x6 | [GB]4 z2 | z B, B,2 F>G | D,[D,F,B,] z[K:treble] c [GB]>[FA] |[M:2/4] z B, B,2 |[M:1/4] x2 | %6
[M:3/4] [GB]4 z2 | z B, B,2 G>G | [DF]4 z2 |[M:2/4] D2 z2 |[M:1/4] x2 |[M:3/4] .E2 z2 z2 | %12
 .C2 z2 z2 | .D2 D2 z2 | B,B, B,2 G>A | .E2 z2 z2 | z C C2 B>G | B,B, z A [B,EG]>F | %18
[M:2/4] z C B,2 |] %19
V:4
 x6 | z2 B,2 z2 | x6 | z2 [D,F,B,]2[K:treble] z2 |[M:2/4] x4 |[M:1/4] x2 |[M:3/4] z2 B,2 z2 | x6 | %8
 z2 B,2 z2 |[M:2/4] z B, z2 |[M:1/4] x2 |[M:3/4] x6 | x6 | x6 | x6 | x6 | x6 | z2 B,2 z2 | %18
[M:2/4] x4 |] %19
V:5
 x6 | z2 [E,G,]2[K:treble][K:bass] z2 | x6 | z2 B,,2 z2 |[M:2/4] x4 |[M:1/4][K:treble] x2 | %6
[M:3/4][K:bass] z2 [E,G,]2[K:treble][K:bass] z2 | x6 | z2 F,2[K:treble] F,2[K:bass] |[M:2/4] x4 | %10
[M:1/4][K:treble] x2 |[M:3/4][K:bass] E,E, E,[D,G,] C,->[C,C] | x6 | z2 B,,2 z2 | x4[K:treble] x2 | %15
 z2 E,2[K:treble] [A,C]2 | .[=A,C]2 z2 z2 | z2 B,,2 B,,2 |[M:2/4] x4 |] %19

